!!!ONB: MCCC : IGH0460_04 : Extracted Monophonic Melody
!!!COM: Handel, George Frideric
!!!OPR: Suite No.1 in A major
!!!OMV: 4
!!!SCT: HWV 426
!!!ODT: 1720///
**kern
*staff1
=1
*clefG2
*k[f#c#g#]
*A:
*M12/8
32ee
32dd
8.ee
8e
32ee
32dd
8.ee
8e
32ee
32dd
8.ee
8e
32ee
32dd
8.ee
8e
=2
8cc#
8ee
8aa
8b
8dd
8gg#
8cc#
8ee
8aa
8b
8dd
8gg#
=3
8cc#
8dd#
8ee
8ff#
8gg#
8aa
8dd#
8ee
8ff#
8b
8dd#
8ff#
=4
8bb
8aa
8gg#
8aa
8gg#
8ff#
8bb
8aa
8gg#
8aa
8gg#
8ff#
=5
4.gg#
4.aa[
8aa]
8gg#
8ff#
8gg#
8aa
8bb
=6
8ee
8dd
8cc#
8dd
8cc#
8b
8ee
8dd
8cc#
8dd
8cc#
8b
=7
8cc#
8dd
8ee
4.ff#
4.r
4.ee
=8
8a
8dd
8cc#
8cc#
8b
8a
8g#
8a
8b
8e
8a
8g#
=9
8f#
8b
8a
8g#
8ee
8dd
8cc#
8b
8a
8b
8ee
8dd
=10
2.r
4r
8bb
8aa
8bb
8gg#
=11
8ff#
8gg#
8aa
8gg#
8aa
8ff#
8ee
8ff#
8gg#
8ff#
8gg#
8ee
=12
4.dd
4.ee
2.b
=13
4.f#
4.r
2.r
=14
8e
8a
8g#
8f#
8b
8a
8g#
8b
8ee
8a
8ee
8dd#
=15
8ee
8b
8gg#
8cc#
8ff#
8aa
8dd#
8cc#
8b
8cc#
8b
8a
=16
8b
8a
8g#
8a
8g#
8f#
8g#
8a
8b
8cc#
8dd#
8ee
=17
8f#
8g#
8a
8b
8cc#
8dd#
8e
8f#
8g#
8a
8b
8cc#
=18
8d#
8e
8f#
8B
8b
8a
8g#
8b
8ee
8f#
8ee
8dd#
=19
8aa
8ee
8ff#
8gg#
8b
8ee
8cc#
8dd#
8ee
8f#
8ee
8dd#
=20
8ee
8b
8g#
8e
8cc#
8a
8b
8g#
8e
8c#
8a
8d#
=21
8e
8g#
8B
8A
8c#
8f#
8G#
8A
8e
8F#
8A
8d#
=22
2.r
2.ee
=23
32ee
32dd
8.ee
8e
32ee
32dd
8.ee
8e
32ee
32dd
8.ee
8e
32ee
32dd
8.ee
8e
=24
8cc#
8ee
8aa
8b
8dd
8gg#
8cc#
8ee
8aa
8b
8dd
8gg#
=25
8cc#
8dd#
8ee
8ff#
8gg#
8aa
8dd#
8ee
8ff#
8b
8dd#
8ff#
=26
8bb
8aa
8gg#
8aa
8gg#
8ff#
8bb
8aa
8gg#
8aa
8gg#
8ff#
=27
4.gg#
4.aa[
8aa]
8gg#
8ff#
8gg#
8aa
8bb
=28
8ee
8dd
8cc#
8dd
8cc#
8b
8ee
8dd
8cc#
8dd
8cc#
8b
=29
8cc#
8dd
8ee
4.ff#
4.r
4.ee
=30
8a
8dd
8cc#
8cc#
8b
8a
8g#
8a
8b
8e
8a
8g#
=31
8f#
8b
8a
8g#
8ee
8dd
8cc#
8b
8a
8b
8ee
8dd
=32
2.r
4r
8bb
8aa
8bb
8gg#
=33
8ff#
8gg#
8aa
8gg#
8aa
8ff#
8ee
8ff#
8gg#
8ff#
8gg#
8ee
=34
4.dd
4.ee
2.b
=35
4.f#
4.r
2.r
=36
8e
8a
8g#
8f#
8b
8a
8g#
8b
8ee
8a
8ee
8dd#
=37
8ee
8b
8gg#
8cc#
8ff#
8aa
8dd#
8cc#
8b
8cc#
8b
8a
=38
8b
8a
8g#
8a
8g#
8f#
8g#
8a
8b
8cc#
8dd#
8ee
=39
8f#
8g#
8a
8b
8cc#
8dd#
8e
8f#
8g#
8a
8b
8cc#
=40
8d#
8e
8f#
8B
8b
8a
8g#
8b
8ee
8f#
8ee
8dd#
=41
8aa
8ee
8ff#
8gg#
8b
8ee
8cc#
8dd#
8ee
8f#
8ee
8dd#
=42
8ee
8b
8g#
8e
8cc#
8a
8b
8g#
8e
8c#
8a
8d#
=43
8e
8g#
8B
8A
8c#
8f#
8G#
8A
8e
8F#
8A
8d#
=44
2.r
2.ee
=45
32b
32a
8.b
8B
32b
32a
8.b
8B
32b
32a
8.b
8B
32b
32a
8.b
8B
=46
8g#
8b
8ee
8f#
8a
8dd#
8g#
8b
8ee
8f#
8a
8dd#
=47
8g#
8a
8b
8cc#
8b
8a
8g#
8f#
8e
8dd
8cc#
8b
=48
8ee
8dd
8cc#
8dd
8cc#
8b
8ee
8dd
8cc#
8dd
8cc#
8b
=49
8cc#
8dd#
8ee#
8ff#
8gg#
8aa
8b
8cc#
8dd
8g#
8a
8b
=50
8e#
8g#
8cc#
8b
8a
8g#
8a
8cc#
8ff#
8g#
8ff#
8ee#
=51
32ff#
32ee
8.ff#
8f#
32ff#
32ee
8.ff#
8f#
32ff#
32ee
8.ff#
8f#
32ff#
32ee
8.ff#
8f#
=52
8dd#
8cc#
8b
8gg#
8ff#
8ee
8dd#
8ee
8ff#
8b
8cc#
8dd#
=53
32ee
32dd
8.ee
8e
32ee
32dd
8.ee
8e
32ee
32dd
8.ee
8e
32ee
32dd
8.ee
8e
=54
8cc#
8b
8a
8ff#
8ee
8dd
8cc#
8dd
8ee
8dd
8ee
8cc#
=55
8b
8cc#
8dd
8cc#
8dd
8b
8a
8b
8cc#
8b
8cc#
8a
=56
8g#
8a
8b
8e
8a
8g#
8f#
8b
8a
8g#
8ee
8dd
=57
8cc#
8ee
8aa
8b
8aa
8gg#
8a
8cc#
8ff#
8g#
8ff#
8ee
=58
8f#
8dd
8cc#
8b
8cc#
8a
8g#
8a
8b
8e
8f#
8d
=59
8c#
8B
8A
8d
8c#
8B
8e
8d
8c#
8f#
8e
8d
=60
8g#
8f#
8e
8a
8g#
8f#
8b
8a
8g#
8cc#
8b
8a
=61
8dd
8dd
8dd
8dd
8cc#
8b
8cc#
8cc#
8cc#
8cc#
8b
8a
=62
8b
8b
8b
8b
8a
8g#
8a
8a
8a
8a
8g#
8f#
=63
8g#
8a
8b
8e
8ee
8dd
8cc#
8ee
8aa
8b
8aa
8gg#
=64
8dd
8cc#
8b
8cc#
8dd
8ee
8f#
8g#
8a
8B
8a
8g#
=65
8a
8e
8c#
8A
8e
8c#
4.d
4.r
=66
2.r
4.r
8B
8d
8g#
=67
2.r
2.a
=68
32b
32a
8.b
8B
32b
32a
8.b
8B
32b
32a
8.b
8B
32b
32a
8.b
8B
=69
8g#
8b
8ee
8f#
8a
8dd#
8g#
8b
8ee
8f#
8a
8dd#
=70
8g#
8a
8b
8cc#
8b
8a
8g#
8f#
8e
8dd
8cc#
8b
=71
8ee
8dd
8cc#
8dd
8cc#
8b
8ee
8dd
8cc#
8dd
8cc#
8b
=72
8cc#
8dd#
8ee#
8ff#
8gg#
8aa
8b
8cc#
8dd
8g#
8a
8b
=73
8e#
8g#
8cc#
8b
8a
8g#
8a
8cc#
8ff#
8g#
8ff#
8ee#
=74
32ff#
32ee
8.ff#
8f#
32ff#
32ee
8.ff#
8f#
32ff#
32ee
8.ff#
8f#
32ff#
32ee
8.ff#
8f#
=75
8dd#
8cc#
8b
8gg#
8ff#
8ee
8dd#
8ee
8ff#
8b
8cc#
8dd#
=76
32ee
32dd
8.ee
8e
32ee
32dd
8.ee
8e
32ee
32dd
8.ee
8e
32ee
32dd
8.ee
8e
=77
8cc#
8b
8a
8ff#
8ee
8dd
8cc#
8dd
8ee
8dd
8ee
8cc#
=78
8b
8cc#
8dd
8cc#
8dd
8b
8a
8b
8cc#
8b
8cc#
8a
=79
8g#
8a
8b
8e
8a
8g#
8f#
8b
8a
8g#
8ee
8dd
=80
8cc#
8ee
8aa
8b
8aa
8gg#
8a
8cc#
8ff#
8g#
8ff#
8ee
=81
8f#
8dd
8cc#
8b
8cc#
8a
8g#
8a
8b
8e
8f#
8d
=82
8c#
8B
8A
8d
8c#
8B
8e
8d
8c#
8f#
8e
8d
=83
8g#
8f#
8e
8a
8g#
8f#
8b
8a
8g#
8cc#
8b
8a
=84
8dd
8dd
8dd
8dd
8cc#
8b
8cc#
8cc#
8cc#
8cc#
8b
8a
=85
8b
8b
8b
8b
8a
8g#
8a
8a
8a
8a
8g#
8f#
=86
8g#
8a
8b
8e
8ee
8dd
8cc#
8ee
8aa
8b
8aa
8gg#
=87
8dd
8cc#
8b
8cc#
8dd
8ee
8f#
8g#
8a
8B
8a
8g#
=88
8a
8e
8c#
8A
8e
8c#
4.d
4.r
=89
2.r
4.r
8B
8d
8g#
=90
2.r
2.a
==
*-
